!!!OTL: Runckelstube(?) (4-27), S. 39
!!!id: P0588
**kern
*clefG2
*k[b-]
*F:
{8c
=1
*M4/4
8f
8c
8f
8g
4a
4g
=2
4f}
=3
{8f
8a
=4
8a
8g
8g
8g
4f
8a
8f
=5
4g}
=6
{8a
8b-
=7
4a
8g
8g
4f}
=8
{8a
8f
=9
4g
8a
8b-
4a
8g
8g
=10
4f}
[2r
8r]
==
*-
!!!minrhy: 8
!!!meters: 2/4 4/4 ]  ZZ[4
!!!cut: Runckelstube(?) (4-27), S. 39
!!!reg: Lothringen
!!!trd: PINCK, Louis: Verklingende Weisen Bd 4, Kassel 1939
!!!rhy1: X  XXXXX_X_  X_
!!!rhy2: XX  XXXXX_XX  X_
!!!key: P0588  08  F 2/4 4/4 ]  ZZ[4
!!!mod: PENTATONIK DUR ?]  AMBITUS[7b
!!!kad: 1211
!!!akz: 131_312_31_231_
!!!fot: 'a__av_b__c__
!!!for: 'a__b__c__cw_
!!!fok: '^a_/__\__\__
!! PHRAS[AUFTAKTIG]
!!!fkt: ???, Standesunterschied, Ehe, Tod
!! LOTH VKL
!! PR[27] 2K[9] 2G[6] 3K[2] 3G[13] 4A[3] 4Ü[0] 5A[0] 6K[0] 6G[0]
!! 7K[0] 7G[0] 8A[0] MEHR[0] SI[33] ABS[64] SR[16] SP[17]
!! ST[0] 2k[11] 2g[23] 3k[0] 3g[5] 4d[2] 4ü[0] 5d[0] 6k[0] 6g[0]
!! 7k[0] 7g[0] 8d[0] mehr[0] si[41] dm[-8] sr[34] sp[6]
!! 1F[33] 2F[47] 3F[16] 4F[0] LF[0] 2P[1] 3P[3] 4P[0] TRI[0] DF[5] AB[70]
!! TF[0] U3K[0] U3[0] U4[0] U4Ü[0] U5[6] U6K[0] U6[0] U7K[0] U7[5]
!! N1[26] N2K[0] N2[15] N3K[0] N3[38] N4[6] N4Ü[0] N5[3] N6K[0] N6[0]
!!!n7k: 0] N7[0] O1[0] O2K[0] O2[0] O3K[0] O3[0] HÖ[0
